src/assets/img/icons/duotone-icons/Text/Paragraph.svg

<svg width="24" height="24" viewBox="0 0 24 24" xmlns="http://www.w3.org/2000/svg"><g fill="none" fill-rule="evenodd"><path d="M0 0h24v24H0z"/><path d="M10.754 19.864V12.54a4.732 4.732 0 01-4.725-4.725 4.732 4.732 0 014.725-4.725h5.565v16.774h-1.638V4.728h-2.268v15.136h-1.659z" fill="#335EEA"/></g></svg>

<?xml version="1.0" encoding="UTF-8"?>
<svg width="24px" height="24px" viewBox="0 0 24 24" version="1.1" xmlns="http://www.w3.org/2000/svg" xmlns:xlink="http://www.w3.org/1999/xlink">
    <!-- Generator: Sketch 52.2 (67145) - http://www.bohemiancoding.com/sketch -->
    <title>Stockholm-icons / Text / Paragraph</title>
    <desc>Created with Sketch.</desc>
    <g id="Stockholm-icons-/-Text-/-Paragraph" stroke="none" stroke-width="1" fill="none" fill-rule="evenodd">
        <rect id="bound" x="0" y="0" width="24" height="24"></rect>
        <path d="M10.754,19.864 L10.754,12.54 C8.15,12.54 6.029,10.419 6.029,7.815 C6.029,5.211 8.15,3.09 10.754,3.09 L16.319,3.09 L16.319,19.864 L14.681,19.864 L14.681,4.728 L12.413,4.728 L12.413,19.864 L10.754,19.864 Z" id="¶" fill="#335EEA"></path>
    </g>
</svg>
